X: 39521
T: Taureen Derby
R: polka
M: 2/4
K: Edorian
|:BE FE|B/B/E FE|D>E FA|D>E FA|
BE F/F/E|BE FE|D>E F/F/A|FE E2:|
|:ef/e/ dB|ef/e/ dB|AF dF|AB/c/ d>f|
ef/e/ dB|ef/e/ dB|A/A/F dF|FE E2:|

